src/pos-icons/car-seat.svg

<svg height="24" viewBox="0 0 24 24" width="24" xmlns="http://www.w3.org/2000/svg"><path d="m7 18s-3-8-3-12 2-4 2-4h1s1 0 1 1-1 1-1 3 3 4 3 7-3 5-3 5m5-1c-1 0-4 2.5-4 2.5-.3.2-.2.5 0 .8 0 0 1 1.8 3 1.8h6c1.1 0 2-.9 2-2v-1c0-1.1-.9-2-2-2h-5z"/></svg>

<?xml version="1.0" encoding="UTF-8"?><!DOCTYPE svg PUBLIC "-//W3C//DTD SVG 1.1//EN" "http://www.w3.org/Graphics/SVG/1.1/DTD/svg11.dtd"><svg xmlns="http://www.w3.org/2000/svg" xmlns:xlink="http://www.w3.org/1999/xlink" version="1.1" id="mdi-car-seat" width="24" height="24" viewBox="0 0 24 24"><path d="M7 18C7 18 4 10 4 6S6 2 6 2H7C7 2 8 2 8 3S7 4 7 6 10 10 10 13 7 18 7 18M12 17C11 17 8 19.5 8 19.5C7.7 19.7 7.8 20 8 20.3C8 20.3 9 22.1 11 22.1H17C18.1 22.1 19 21.2 19 20.1V19.1C19 18 18.1 17.1 17 17.1H12Z" /></svg>
